src/lib/packages/icons/src/assets/filled/alarm-edit.svg

<svg width="24" height="24" viewBox="0 0 24 24" fill="none" xmlns="http://www.w3.org/2000/svg">
<path d="M21.4871 14.9973L20.4971 14.0073C20.4146 13.9241 20.3164 13.8581 20.2083 13.813C20.1001 13.7679 19.9843 13.7446 19.8672 13.7446C19.75 13.7446 19.634 13.7679 19.5259 13.813C19.4177 13.8581 19.3195 13.9241 19.2371 14.0073L18.427 14.8174L20.677 17.0674L21.4871 16.2573C21.5703 16.1749 21.6363 16.0766 21.6814 15.9685C21.7265 15.8604 21.7498 15.7443 21.7498 15.6272C21.7498 15.51 21.7265 15.3943 21.6814 15.2861C21.6363 15.178 21.5703 15.0798 21.4871 14.9973ZM17.7271 15.5273L13.7471 19.5273V21.7473H15.967L19.967 17.7673L17.7271 15.5273ZM10.7471 3.74731C9.04831 3.74889 7.39415 4.29119 6.02417 5.29565C4.65419 6.30012 3.6396 7.71459 3.1272 9.33423C2.61479 10.9539 2.63112 12.6945 3.17407 14.3042C3.71703 15.9139 4.75823 17.309 6.14697 18.2874L4.21704 20.2173C4.07756 20.3584 3.99927 20.5489 3.99927 20.7473C3.99927 20.9457 4.07756 21.1362 4.21704 21.2773C4.28661 21.347 4.36926 21.4022 4.46021 21.4399C4.55115 21.4776 4.64862 21.4971 4.74707 21.4971C4.84552 21.4971 4.94299 21.4776 5.03394 21.4399C5.12488 21.4022 5.20753 21.347 5.2771 21.2773L7.49707 19.0574C8.52006 19.5126 9.62735 19.7477 10.7471 19.7473C11.1689 19.7447 11.5901 19.7111 12.0071 19.6472C12.0735 19.6303 12.133 19.5936 12.1777 19.5417C12.2225 19.4899 12.2502 19.4256 12.2571 19.3574C12.2978 19.0213 12.449 18.7081 12.687 18.4673L18.177 12.9473C18.3029 12.8204 18.4442 12.7098 18.5972 12.6174C18.6366 12.5863 18.6687 12.5466 18.6912 12.5017C18.7136 12.4568 18.7258 12.4076 18.7271 12.3574C18.7371 12.1574 18.7471 11.9573 18.7471 11.7473C18.7471 9.62558 17.9041 7.59074 16.4038 6.09045C14.9035 4.59016 12.8688 3.74731 10.7471 3.74731ZM11.4971 11.7473C11.4971 11.9462 11.418 12.1369 11.2773 12.2776C11.1367 12.4182 10.946 12.4973 10.7471 12.4973C10.5482 12.4973 10.3574 12.4182 10.2168 12.2776C10.0761 12.1369 9.99707 11.9462 9.99707 11.7473V7.74731C9.99707 7.5484 10.0761 7.35769 10.2168 7.21704C10.3574 7.07639 10.5482 6.99731 10.7471 6.99731C10.946 6.99731 11.1367 7.07639 11.2773 7.21704C11.418 7.35769 11.4971 7.5484 11.4971 7.74731V11.7473ZM4.2771 2.21729C4.13584 2.07804 3.94542 2 3.74707 2C3.54872 2 3.3583 2.07804 3.21704 2.21729L1.21704 4.21729C1.07756 4.35842 0.999268 4.54888 0.999268 4.74731C0.999268 4.94574 1.07756 5.13621 1.21704 5.27734C1.28661 5.34701 1.36926 5.40223 1.46021 5.43994C1.55115 5.47765 1.64862 5.49707 1.74707 5.49707C1.84552 5.49707 1.94299 5.47765 2.03394 5.43994C2.12488 5.40223 2.20753 5.34701 2.2771 5.27734L4.2771 3.27734C4.41658 3.13621 4.49487 2.94574 4.49487 2.74731C4.49487 2.54888 4.41658 2.35842 4.2771 2.21729ZM20.2771 4.20728L18.2771 2.24731C18.1325 2.11394 17.9418 2.04211 17.7451 2.047C17.5485 2.05188 17.3614 2.13305 17.2236 2.27344C17.0858 2.41383 17.008 2.60236 17.0068 2.79907C17.0056 2.99578 17.081 3.1852 17.217 3.32727L19.217 5.28735C19.3621 5.42555 19.5558 5.50094 19.7561 5.49719C19.9564 5.49345 20.1473 5.41085 20.2871 5.26733C20.425 5.12476 20.5011 4.93358 20.4993 4.73523C20.4974 4.53688 20.4177 4.34722 20.2771 4.20728Z" fill="currentColor"/>
</svg>

<svg xmlns="http://www.w3.org/2000/svg" width="24" height="24" fill="none"><path fill="currentColor" d="m21.487 14.997-.99-.99a.888.888 0 0 0-1.26 0l-.81.81 2.25 2.25.81-.81a.887.887 0 0 0 0-1.26Zm-3.76.53-3.98 4v2.22h2.22l4-3.98-2.24-2.24Zm-6.98-11.78a8 8 0 0 0-4.6 14.54l-1.93 1.93a.754.754 0 0 0 .243 1.223.75.75 0 0 0 .817-.163l2.22-2.22a7.987 7.987 0 0 0 4.51.59.333.333 0 0 0 .25-.29c.04-.336.192-.649.43-.89l5.49-5.52c.126-.127.267-.237.42-.33a.344.344 0 0 0 .13-.26c.01-.2.02-.4.02-.61a8 8 0 0 0-8-8Zm.75 8a.75.75 0 0 1-1.5 0v-4a.75.75 0 0 1 1.5 0v4Zm-7.22-9.53a.755.755 0 0 0-1.06 0l-2 2A.754.754 0 0 0 1.46 5.44a.749.749 0 0 0 .817-.163l2-2a.754.754 0 0 0 0-1.06Zm16 1.99-2-1.96a.757.757 0 0 0-1.06 1.08l2 1.96a.761.761 0 0 0 1.07-.02.755.755 0 0 0-.01-1.06Z"/></svg>
